<?xml version="1.0" encoding="UTF-8"?>
<map version="1.10" tiledversion="1.12.2" orientation="orthogonal" renderorder="right-down" width="40" height="20" tilewidth="16" tileheight="16" infinite="0" nextlayerid="4" nextobjectid="37">
 <editorsettings>
  <export target="nivel1.lua" format="lua"/>
 </editorsettings>
 <tileset firstgid="1" name="TilesetPisos" tilewidth="16" tileheight="16" tilecount="572" columns="22">
  <image source="TilesetPisos.png" width="352" height="417"/>
 </tileset>
 <tileset firstgid="573" name="TilesetDeco" tilewidth="16" tileheight="16" tilecount="240" columns="16">
  <image source="TilesetDeco.png" width="256" height="240"/>
 </tileset>
 <layer id="1" name="Piso" width="40" height="20">
  <data encoding="csv">
309,310,310,310,310,310,310,310,310,310,310,310,310,310,310,310,310,310,310,311,463,464,464,464,464,464,464,464,464,464,464,464,464,464,464,464,464,464,464,465,
331,332,332,332,332,332,332,332,332,332,332,332,332,332,332,332,332,332,332,333,485,508,486,486,486,486,486,486,486,486,486,486,486,486,486,486,486,486,508,487,
331,332,332,332,332,332,332,332,332,332,332,332,332,332,332,332,332,332,332,333,485,486,486,508,486,486,486,486,486,486,486,486,486,486,486,486,508,486,486,487,
331,332,332,332,332,332,332,332,332,332,332,332,332,332,332,332,332,332,332,333,485,486,486,486,486,508,486,486,486,486,486,486,486,486,508,486,486,486,486,487,
331,332,332,332,332,332,332,332,332,336,337,332,332,332,332,332,332,332,332,333,485,486,486,486,486,486,486,508,486,486,486,486,508,486,486,486,486,486,486,487,
331,332,332,332,332,332,332,332,332,358,359,332,332,332,332,332,332,332,332,333,485,486,486,486,486,486,486,508,486,486,486,486,508,486,486,486,486,486,486,487,
331,332,332,332,332,332,332,332,332,332,332,332,332,332,332,332,332,332,332,333,485,486,486,486,486,508,486,486,486,486,486,486,486,486,508,486,486,486,486,487,
331,332,332,332,332,332,332,332,332,332,332,332,332,332,332,332,332,332,332,333,485,486,486,508,486,486,486,486,486,486,486,486,486,486,486,486,508,486,486,487,
331,332,332,332,332,332,332,332,332,332,332,332,332,332,332,332,332,332,332,333,485,508,486,486,486,486,486,486,486,486,486,486,486,486,486,486,486,486,508,487,
353,354,354,354,354,354,354,354,354,332,332,354,354,354,354,354,354,354,354,382,507,508,508,508,508,508,508,508,508,508,508,508,508,508,508,508,508,508,508,509,
320,321,321,321,321,321,321,321,321,321,321,321,321,321,321,321,321,321,321,322,474,475,475,475,475,475,475,475,475,475,475,475,475,475,475,475,475,475,475,476,
342,343,343,343,343,343,343,343,343,343,343,343,343,343,343,343,343,343,343,344,496,478,497,497,497,497,497,497,497,497,497,497,497,497,497,497,497,497,481,498,
342,343,343,343,343,343,343,343,343,343,343,343,343,343,343,343,343,343,343,344,496,497,497,497,497,497,497,497,497,497,497,497,497,497,497,497,497,497,497,498,
342,343,343,343,343,343,343,343,343,343,343,343,343,343,343,343,343,343,343,344,496,497,497,497,497,497,497,497,497,497,497,497,497,497,497,497,497,497,497,498,
342,343,343,343,343,343,343,343,343,343,343,343,343,343,343,343,343,343,343,344,496,500,497,497,497,497,497,497,497,501,502,497,497,497,497,497,497,497,503,498,
342,343,343,343,343,343,343,343,343,343,343,343,343,343,343,343,343,343,343,344,496,522,497,497,497,497,497,497,497,523,524,497,497,497,497,497,497,497,525,498,
342,343,343,343,343,343,343,343,343,343,343,343,343,343,343,343,343,343,343,344,496,497,497,497,497,497,497,497,497,497,497,497,497,497,497,497,497,497,497,498,
342,343,343,343,343,343,343,343,343,343,343,343,343,343,343,343,343,343,343,344,496,497,497,497,497,497,497,497,497,497,497,497,497,497,497,497,497,497,497,498,
342,343,343,343,343,343,343,343,343,343,343,343,343,343,343,343,343,343,343,344,496,544,497,497,497,497,497,497,497,497,497,497,497,497,497,497,497,497,547,498,
364,365,365,365,365,365,365,365,365,365,365,365,365,365,365,365,365,365,365,366,518,519,519,519,519,519,519,519,519,519,519,519,519,519,519,519,519,519,519,520
</data>
 </layer>
 <layer id="2" name="Deco" width="40" height="20">
  <data encoding="csv">
0,0,0,0,0,0,0,0,0,0,0,0,0,0,0,0,0,0,0,0,0,0,0,0,0,0,0,0,0,0,0,0,0,0,0,0,0,0,0,0,
0,0,0,0,0,0,0,0,0,0,0,0,0,0,0,0,0,0,0,0,0,0,0,0,0,0,0,0,0,0,0,0,0,0,0,0,0,0,0,0,
0,0,0,0,0,0,0,0,0,0,0,0,0,0,0,0,0,0,0,0,0,0,0,0,0,0,0,0,0,0,0,0,0,0,0,0,0,0,0,0,
0,0,0,0,0,0,0,0,0,0,0,0,0,0,0,0,0,0,0,0,0,0,0,0,0,0,0,0,0,0,0,0,0,0,0,0,0,0,0,0,
0,0,0,0,0,0,0,0,0,0,0,0,0,0,0,0,0,0,0,0,0,0,0,0,0,0,0,0,0,0,0,0,0,0,0,0,0,0,0,0,
0,0,0,0,0,0,0,0,0,0,0,0,0,0,0,0,0,0,0,0,0,0,0,0,0,0,0,0,0,0,0,0,0,0,0,0,0,0,0,0,
0,0,0,0,0,0,0,0,0,0,0,0,0,0,0,0,0,0,0,0,0,0,0,0,0,0,0,0,0,0,0,0,0,0,0,0,0,0,0,0,
0,0,0,0,0,0,0,0,0,0,0,0,0,0,0,0,0,0,0,0,0,0,0,0,0,0,0,0,0,0,0,0,0,0,0,0,0,0,0,0,
0,0,0,0,0,0,0,0,0,0,0,0,0,0,0,0,0,0,0,0,0,0,0,0,0,0,0,0,0,0,0,0,0,0,0,0,0,0,0,0,
0,0,0,0,0,0,0,0,0,788,788,0,0,0,0,0,0,0,0,0,0,0,0,0,0,0,0,0,0,0,0,0,0,0,0,0,0,0,0,0,
0,0,0,0,0,0,0,0,0,0,0,0,0,0,0,0,0,0,0,0,0,0,0,0,0,0,0,0,0,789,789,0,0,0,0,0,0,0,0,0,
0,0,0,0,0,0,0,0,0,0,0,0,0,0,0,0,0,0,0,0,0,0,0,0,0,0,0,0,0,0,0,0,0,0,0,0,0,0,0,0,
0,0,0,0,0,0,0,0,0,0,0,0,0,0,0,0,0,0,0,0,0,0,0,0,0,0,0,0,0,0,0,0,0,0,0,0,0,0,0,0,
0,0,0,0,0,0,0,0,0,0,0,0,0,0,0,0,0,0,0,0,0,0,0,0,0,0,0,0,0,0,0,0,0,0,0,0,0,0,0,0,
0,0,0,0,0,0,0,0,0,0,0,0,0,0,0,0,0,0,0,790,0,0,0,0,0,0,0,0,0,0,0,0,0,0,0,0,0,0,0,0,
0,0,0,0,0,0,0,0,0,0,0,0,0,0,0,0,0,0,0,790,0,0,0,0,0,0,0,0,0,0,0,0,0,0,0,0,0,0,0,0,
0,0,0,0,0,0,0,0,0,0,0,0,0,0,0,0,0,0,0,0,0,0,0,0,0,0,0,0,0,0,0,0,0,0,0,0,0,0,0,0,
0,0,0,0,0,0,0,0,0,0,0,0,0,0,0,0,0,0,0,0,0,0,0,0,0,0,0,0,0,0,0,0,0,0,0,0,0,0,0,0,
0,0,0,0,0,0,0,0,0,0,0,0,0,0,0,0,0,0,0,0,0,0,0,0,0,0,0,0,0,0,0,0,0,0,0,0,0,0,0,0,
0,0,0,0,0,0,0,0,0,0,0,0,0,0,0,0,0,0,0,0,0,0,0,0,0,0,0,0,0,0,0,0,0,0,0,0,0,0,0,0
</data>
 </layer>
 <objectgroup id="3" name="Paredes">
  <object id="5" x="-0.272727" y="-0.181818" width="320" height="7.09091"/>
  <object id="18" x="320.091" y="159.636" width="143.909" height="7.09091"/>
  <object id="33" x="320.091" y="152.886" width="143.909" height="7.09091"/>
  <object id="31" x="496.216" y="160.011" width="143.909" height="7.09091"/>
  <object id="32" x="496.341" y="152.511" width="143.909" height="7.09091"/>
  <object id="19" x="320.091" y="312.909" width="320" height="7.09091"/>
  <object id="16" x="320" y="0" width="320" height="7.09091"/>
  <object id="15" x="-0.0227273" y="313.068" width="320" height="7.09091"/>
  <object id="11" x="0.0909091" y="152.545" width="143.909" height="7.09091"/>
  <object id="36" x="0.340909" y="159.545" width="143.909" height="7.09091"/>
  <object id="34" x="176.341" y="152.67" width="143.909" height="7.09091"/>
  <object id="35" x="176.841" y="160.17" width="143.909" height="7.09091"/>
  <object id="6" x="312.5" y="0.0909091" width="7.40909" height="159.784"/>
  <object id="26" x="320.364" y="0.147727" width="7.40909" height="159.784"/>
  <object id="20" x="0.5" y="-0.272727" width="7.40909" height="159.784"/>
  <object id="21" x="0.681818" y="159.909" width="7.40909" height="159.784"/>
  <object id="22" x="314.5" y="160.091" width="5.40909" height="65.6364"/>
  <object id="29" x="320.5" y="160.091" width="5.40909" height="65.6364"/>
  <object id="27" x="314.625" y="254.716" width="5.40909" height="65.6364"/>
  <object id="28" x="320.25" y="254.841" width="5.40909" height="65.6364"/>
  <object id="24" x="632.682" y="159.909" width="7.40909" height="159.784"/>
  <object id="25" x="632.682" y="0.0909091" width="7.40909" height="159.784"/>
 </objectgroup>
</map>
